build/fonts/cisco/webbrowser.svg

<?xml version="1.0" encoding="UTF-8" standalone="no"?>
<svg
   xmlns:dc="http://purl.org/dc/elements/1.1/"
   xmlns:cc="http://creativecommons.org/ns#"
   xmlns:rdf="http://www.w3.org/1999/02/22-rdf-syntax-ns#"
   xmlns:svg="http://www.w3.org/2000/svg"
   xmlns="http://www.w3.org/2000/svg"
   viewBox="0 0 37.5 40"
   height="40"
   width="37.5"
   xml:space="preserve"
   version="1.1"
   id="svg2"><metadata
     id="metadata8"><rdf:RDF><cc:Work
         rdf:about=""><dc:format>image/svg+xml</dc:format><dc:type
           rdf:resource="http://purl.org/dc/dcmitype/StillImage" /></cc:Work></rdf:RDF></metadata><defs
     id="defs6"><clipPath
       id="clipPath18"
       clipPathUnits="userSpaceOnUse"><path
         id="path20"
         d="m 0,10 300,0 0,310 L 0,320 0,10 Z" /></clipPath></defs><g
     transform="matrix(1.25,0,0,-1.25,0,40)"
     id="g10"><g
       transform="scale(0.1,0.1)"
       id="g12"><g
         id="g14"><g
           clip-path="url(#clipPath18)"
           id="g16"><path
             id="path22"
             style="fill:#036998;fill-opacity:1;fill-rule:nonzero;stroke:none"
             d="m 41.7617,67.5 3.75,44.801 219.0973,0 -3.75,-44.801 -219.0973,0" /><path
             id="path24"
             style="fill:none;stroke:#ffffff;stroke-width:3.99993992;stroke-linecap:butt;stroke-linejoin:miter;stroke-miterlimit:4;stroke-dasharray:none;stroke-opacity:1"
             d="m 41.7617,67.5 3.75,44.801 219.0973,0 -3.75,-44.801 -219.0973,0 z" /><path
             id="path26"
             style="fill:#036998;fill-opacity:1;fill-rule:nonzero;stroke:none"
             d="m 255.82,10.1211 0,13.0781 28.59,39.7305 0,-24.2188 -28.59,-28.5898" /><path
             id="path28"
             style="fill:none;stroke:#ffffff;stroke-width:3.99993992;stroke-linecap:butt;stroke-linejoin:miter;stroke-miterlimit:4;stroke-dasharray:none;stroke-opacity:1"
             d="m 255.82,10.1211 0,13.0781 28.59,39.7305 0,-24.2188 -28.59,-28.5898 z" /><path
             id="path30"
             style="fill:#036998;fill-opacity:1;fill-rule:nonzero;stroke:none"
             d="m 3.94922,10.1094 251.879,0 0,13.0898 -251.879,0 0,-13.0898 z" /><path
             id="path32"
             style="fill:none;stroke:#ffffff;stroke-width:3.99993992;stroke-linecap:butt;stroke-linejoin:miter;stroke-miterlimit:4;stroke-dasharray:none;stroke-opacity:1"
             d="m 3.94922,10.1094 251.879,0 0,13.0898 -251.879,0 0,-13.0898 z" /><path
             id="path34"
             style="fill:#036998;fill-opacity:1;fill-rule:nonzero;stroke:none"
             d="m 43.1992,113.238 217.621,0 0,164.691 -217.621,0 0,-164.691 z" /><path
             id="path36"
             style="fill:none;stroke:#ffffff;stroke-width:3.99993992;stroke-linecap:butt;stroke-linejoin:miter;stroke-miterlimit:4;stroke-dasharray:none;stroke-opacity:1"
             d="m 43.1992,113.238 217.621,0 0,164.691 -217.621,0 0,-164.691 z" /><path
             id="path38"
             style="fill:#036998;fill-opacity:1;fill-rule:nonzero;stroke:none"
             d="m 260.82,113.238 37.27,37.27 0,164.652 -37.27,-37.23 0,-164.692" /><path
             id="path40"
             style="fill:none;stroke:#ffffff;stroke-width:3.99993992;stroke-linecap:butt;stroke-linejoin:miter;stroke-miterlimit:4;stroke-dasharray:none;stroke-opacity:1"
             d="m 260.82,113.238 37.27,37.27 0,164.652 -37.27,-37.23 0,-164.692 z" /><path
             id="path42"
             style="fill:#036998;fill-opacity:1;fill-rule:nonzero;stroke:none"
             d="m 255.82,23.1992 -251.87078,0 29.14058,39.7305 251.3202,0 -28.59,-39.7305" /><path
             id="path44"
             style="fill:none;stroke:#ffffff;stroke-width:3.99993992;stroke-linecap:butt;stroke-linejoin:miter;stroke-miterlimit:4;stroke-dasharray:none;stroke-opacity:1"
             d="m 255.82,23.1992 -251.87078,0 29.14058,39.7305 251.3202,0 -28.59,-39.7305 z" /><path
             id="path46"
             style="fill:#036998;fill-opacity:1;fill-rule:nonzero;stroke:none"
             d="m 262.148,62.6992 0,51.5198 36.993,36.801 0,-51.2895 -36.993,-37.0313" /><path
             id="path48"
             style="fill:none;stroke:#ffffff;stroke-width:3.99993992;stroke-linecap:butt;stroke-linejoin:miter;stroke-miterlimit:4;stroke-dasharray:none;stroke-opacity:1"
             d="m 262.148,62.6992 0,51.5198 36.993,36.801 0,-51.2895 -36.993,-37.0313 z" /><path
             id="path50"
             style="fill:#ffffff;fill-opacity:1;fill-rule:nonzero;stroke:none"
             d="m 78.6719,258.949 145.9761,0 c 9.493,0 17.192,-7.699 17.192,-17.191 l 0,-92.227 c 0,-9.492 -7.699,-17.191 -17.192,-17.191 l -145.9761,0 c -9.4922,0 -17.1914,7.699 -17.1914,17.191 l 0,92.227 c 0,9.492 7.6992,17.191 17.1914,17.191" /><path
             id="path52"
             style="fill:#036998;fill-opacity:1;fill-rule:nonzero;stroke:none"
             d="m 298.09,315.16 -212.4298,0 -42.461,-37.23 217.6208,0 37.27,37.23" /><path
             id="path54"
             style="fill:none;stroke:#ffffff;stroke-width:3.99993992;stroke-linecap:butt;stroke-linejoin:miter;stroke-miterlimit:4;stroke-dasharray:none;stroke-opacity:1"
             d="m 298.09,315.16 -212.4298,0 -42.461,-37.23 217.6208,0 37.27,37.23 z" /><path
             id="path56"
             style="fill:#036998;fill-opacity:1;fill-rule:nonzero;stroke:none"
             d="m 126.211,229.301 c -26.6797,5.347 -40.7813,-8.321 -38.5508,-20.16 l 0.1914,-0.621 C 67.0703,204.961 72.5,180.43 82.5,180.43 l 0.9805,0.039 C 81.1289,163.551 106.129,153.551 118.789,163.09 l 0.902,0.93 c 3.938,-16.09 57.688,-17.34 68.547,-5.309 l 0.981,-0.273 c 23.511,-1.879 34.261,14.371 29.101,26.05 l 1.289,0.352 c 8.012,2.109 8.942,20.668 -4.839,23.398 l 0.269,0.711 c 5.981,12.071 -8.129,23.43 -27.699,21.281 l -1.36,0.708 c -13.992,12.691 -54.3,10.621 -58.949,-1.918 l -0.82,0.281" /><path
             id="path58"
             style="fill:none;stroke:#ffffff;stroke-width:3.99993992;stroke-linecap:butt;stroke-linejoin:miter;stroke-miterlimit:4;stroke-dasharray:none;stroke-opacity:1"
             d="m 126.211,229.301 c -26.6797,5.347 -40.7813,-8.321 -38.5508,-20.16 l 0.1914,-0.621 C 67.0703,204.961 72.5,180.43 82.5,180.43 l 0.9805,0.039 C 81.1289,163.551 106.129,153.551 118.789,163.09 l 0.902,0.93 c 3.938,-16.09 57.688,-17.34 68.547,-5.309 l 0.981,-0.273 c 23.511,-1.879 34.261,14.371 29.101,26.05 l 1.289,0.352 c 8.012,2.109 8.942,20.668 -4.839,23.398 l 0.269,0.711 c 5.981,12.071 -8.129,23.43 -27.699,21.281 l -1.36,0.708 c -13.992,12.691 -54.3,10.621 -58.949,-1.918 l -0.82,0.281 z" /></g></g></g></g></svg>

<svg xmlns="http://www.w3.org/2000/svg" viewBox="0 0 37.5 40" height="40" width="37.5"><defs><clipPath id="a"><path d="M0 10h300v310H0V10z"/></clipPath></defs><g clip-path="url(#a)" transform="matrix(.13 0 0 -.13 0 40)"><path d="M41.762 67.5l3.75 44.801h219.097l-3.75-44.801H41.762" fill="#036998"/><path d="M41.762 67.5l3.75 44.801h219.097l-3.75-44.801H41.762z" fill="none" stroke="#fff" stroke-width="4"/><path d="M255.82 10.121V23.2l28.59 39.73V38.712l-28.59-28.59" fill="#036998"/><path d="M255.82 10.121V23.2l28.59 39.73V38.712l-28.59-28.59z" fill="none" stroke="#fff" stroke-width="4"/><path d="M3.95 10.11h251.878V23.2H3.95V10.11z" fill="#036998"/><path d="M3.95 10.11h251.878V23.2H3.95V10.11z" fill="none" stroke="#fff" stroke-width="4"/><path d="M43.2 113.238h217.62v164.691H43.2V113.238z" fill="#036998"/><path d="M43.2 113.238h217.62v164.691H43.2V113.238z" fill="none" stroke="#fff" stroke-width="4"/><path d="M260.82 113.238l37.27 37.27V315.16l-37.27-37.23V113.238" fill="#036998"/><path d="M260.82 113.238l37.27 37.27V315.16l-37.27-37.23V113.238z" fill="none" stroke="#fff" stroke-width="4"/><path d="M255.82 23.2H3.95l29.14 39.73h251.32L255.82 23.2" fill="#036998"/><path d="M255.82 23.2H3.95l29.14 39.73h251.32L255.82 23.2z" fill="none" stroke="#fff" stroke-width="4"/><path d="M262.148 62.7v51.519l36.993 36.801V99.73L262.148 62.7" fill="#036998"/><path d="M262.148 62.7v51.519l36.993 36.801V99.73L262.148 62.7z" fill="none" stroke="#fff" stroke-width="4"/><path d="M78.672 258.949h145.976c9.493 0 17.192-7.699 17.192-17.191v-92.227c0-9.492-7.699-17.191-17.192-17.191H78.672c-9.492 0-17.192 7.699-17.192 17.191v92.227c0 9.492 7.7 17.191 17.192 17.191" fill="#fff"/><path d="M298.09 315.16H85.66L43.2 277.93h217.62l37.27 37.23" fill="#036998"/><path d="M298.09 315.16H85.66L43.2 277.93h217.62l37.27 37.23z" fill="none" stroke="#fff" stroke-width="4"/><path d="M126.211 229.301c-26.68 5.347-40.781-8.321-38.55-20.16l.19-.621c-20.78-3.559-15.351-28.09-5.351-28.09l.98.039c-2.351-16.918 22.649-26.918 35.309-17.379l.902.93c3.938-16.09 57.688-17.34 68.547-5.309l.981-.273c23.511-1.879 34.261 14.371 29.101 26.05l1.289.352c8.012 2.109 8.942 20.668-4.839 23.398l.269.711c5.981 12.071-8.129 23.43-27.699 21.281l-1.36.708c-13.992 12.691-54.3 10.621-58.949-1.918l-.82.281" fill="#036998"/><path d="M126.211 229.301c-26.68 5.347-40.781-8.321-38.55-20.16l.19-.621c-20.78-3.559-15.351-28.09-5.351-28.09l.98.039c-2.351-16.918 22.649-26.918 35.309-17.379l.902.93c3.938-16.09 57.688-17.34 68.547-5.309l.981-.273c23.511-1.879 34.261 14.371 29.101 26.05l1.289.352c8.012 2.109 8.942 20.668-4.839 23.398l.269.711c5.981 12.071-8.129 23.43-27.699 21.281l-1.36.708c-13.992 12.691-54.3 10.621-58.949-1.918l-.82.281z" fill="none" stroke="#fff" stroke-width="4"/></g></svg>
